X:1
T:Bird Songs
T:The Yellowhammer
T:To Blanche Marchesi 
T:Bird Songs
T:Liza Lehmann
T:3. The Yellowhammer
T:A. S.
T:Creative Commons copyright waiver (CC0 .10 Universal)
T:Creative Commons copyright waiver (CC0 .10 Universal)
T:Creative Commons copyright waiver (CC0 .10 Universal)
T:Creative Commons copyright waiver (CC0 .10 Universal)
C:Liza Lehmann
Z:A. S.
Z:Creative Commons copyright waiver (CC0 .10 Universal)
L:1/8
Q:1/4=80
M:4/4
K:Bb
V:1 treble nm="Voice"
V:1
"^Tempo commodo" z2 | z8 | z4 z2!mp! (3z d c | (3:2:2B2 B (3:2:2A2 A (3:2:2G2 G (3:2:2D2 D | %4
w: ||On a|sul- try Sum- mer morn- ing Down the|
 (3:2:2F2 F (3:2:2G2 G A2- !breath!A z | z2 z2 z2 z G | (3:2:2A2 A (3:2:2G2 F f4- |!<(! f8- | %8
w: dust- y road we stray’d, _|And|ran and laughed and played!|_|
 f6!<)! z2 | z8 | z8 | z8 | z4 z z z"^Misprint in \nIMSLP edition\nin the lyrics\n" ^E | %13
w: ||||“A|
 ^F/ F/ F/ F/ F F !>!^f4 | !>!^d8- | d z z2 z4 | z8 | z8 | z4 z2!mf! (3z d c | %19
w: lit- tle bit of bread and no|cheese!”|_|||Once a-|
 (3:2:2B2 B (3:2:2A2 A (3:2:2G2 G (3:2:2D2 D | (3:2:2F2 F (3:2:2G2 G A2- !breath!!fermata!A z | %21
w: gain we roamed the wood- land, When the|years had fleet- ed by, _|
 z8 | z8 | z8 | z6 (3z ^c d | (3:2:2=e2 e (3:2:2B2 B A2- !breath!A z | z8 | z8 | z8 | z8 | z8 | %31
w: |||We had|kissd be- neath the trees, _||||||
 z8 | z8 |] %33
w: ||

